X:1
T:O Be Saved
T:Silas Jones Vail
T:O Be Saved
T:Public Domain
T:Public Domain
C:Silas Jones Vail
Z:Public Domain
%%score ( 1 2 ) ( 3 4 )
L:1/8
M:6/4
K:F
V:1 treble 
V:2 treble 
V:3 bass 
V:4 bass 
V:1
 F4 [FA]2 [Ac]4 [FA]2 | [FA]4 [EG]2 [EG]2 F4 | [FB]4 [FB]2 [FA]4 [FA]2 | [CG]4 F2 [EG]6 | %4
w: 1.~Sin- ner, how thy|is trou- bled, God|com- ing ver- y|near; Do not|
w: 2.~Je- sus now is|ing o’er thee, Je-|low- ly, meek and|mild; To the|
w: 3.~Art thou wait- ing|the mor- row? Thou|ne- ver see its|light; Come at|
w: 4.~With a low- ly,|trite spir- it, Kneel-|at the Sav- ior’s|feet; Thou canst|
w: 5.~Let the an- gels|the tid- ings, Up-|to the courts of|heav’n; Let them|
 F4 [FA]2 [Ac]4 [FA]2 | [FA]4 [EG]2 [EG]2 F4 | [FB]4 [FB]2 [FA]4 F2 | [FA]4 [EG]2 F6 || %8
w: thy deep e- mo-|Do not check that|ing tear. * *||
w: who died to save|Canst thou not be|con- ciled? * *||
w: ac- cept His mer-|He is wait- ing—|to- night. * *||
w: this ver- y mo-|Par- don— pre- cious,|and sweet. * *||
w: with ho- ly rap-|O’er a- no- ther|for- giv’n. * *||
"^Refrain" [Fd]4 [Fd]2 [Fc]4 [FA]2 | [Ec]4 [Ec]2 [FA]6 | [GB]4 [GB]2 [FA]4 [FA]2 | %11
w: |||
w: |||
w: |||
w: |||
w: |||
 [EG]4 (DF) [Ec]6 | F4 [FA]2 [Ac]4 [FA]2 | [FA]4 [EG]2 F6 |] %14
w: |||
w: |||
w: |||
w: |||
w: |||
V:2
 F4 x8 | x8 F4 | x12 | x4 F2 x6 | F4 x8 | x8 F4 | x10 F2 | x6 F6 || x12 | x12 | x12 | x4 =B2 x6 | %12
w: heart|is||hide|tion,|fall-|||||||
w: bend-|sus||friend|thee,|re-|||||||
w: till|may’st||once—|cy,|come|||||||
w: con-|ing||feel|ment,|pure|||||||
w: bear|ward||sing,|ture,|soul|||||||
 F4 x8 | x6 F6 |] %14
w: ||
w: ||
w: ||
w: ||
w: ||
V:3
 [F,A,]4 [F,C]2 [F,C]4 [F,C]2 | [C,C]4 [C,B,]2 [F,B,]2 [F,A,]4 | [F,D]4 [F,D]2 [F,C]4 [F,C]2 | %3
w: ~ ~ ~ ~|~ ~ ~ ~|~ ~ ~ ~|
 [E,C]4 [D,=B,]2 [C,C]6 | [F,A,]4 [F,C]2 [F,C]4 [F,C]2 | [C,C]4 [C,B,]2 [F,B,]2 [F,A,]4 | %6
w: ~ ~ ~|~ ~ ~ ~|~ ~ ~ ~|
 [B,,D]4 [B,,D]2 [C,C]4 [C,A,]2 | [C,C]4 [C,B,]2 [F,A,]6 || [B,,B,]4 [B,,B,]2 [F,A,]4 [F,A,]2 | %9
w: ~ ~ ~ ~|~ ~ ~|O be saved, His|
 [C,G,]4 [C,C]2 [F,C]6 | [E,C]4 [E,C]2 [F,C]4 [F,C]2 | [G,C]4 G,2 [C,G,]6 | %12
w: grace is free;|O be saved, He|died for thee;|
 [F,A,]4 [F,C]2 [F,C]4 [F,C]2 | [C,C]4 [C,B,]2 [F,A,]6 |] %14
w: be saved, He died|for thee. *|
V:4
 x12 | x12 | x12 | x12 | x12 | x12 | x12 | x12 || x12 | x12 | x12 | x4 G,2 x6 | x12 | x12 |] %14
w: |||||||||||O|||

